!!!OTL: Carbonard (138), S. 312
!!!id: T0307
**kern
*clefG2
*k[]
*G:
{8d
=1
8g
8g
4.g
8a
8b
8a
=2
4g}
8r
=3
{8b
8b
8a
8b
8cc
=4
4dd
8cc
8b
4a}
8r
=5
{8b
=6
4b
8b
8b
4dd
8b
8b
=7
8b
8a
8b
8cc
4.dd}
=8
{8cc
=9
8b
8a
8a
8a
4g
8g
8g
=10
8dd
8dd
8dd
8dd
4.dd}
=11
{8b
=12
8b
8a
8g
8a
4b
4a
=13
4g}
2.r
==
*-
!!!minrhy: 8
!!!meters: 4/4 ]  ZZ[5
!!!cut: Carbonard (138), S. 312
!!!reg: Luxemburg
!!!trd: Singendes Volk, Esch-Alzette 1937, posth.
!!!rhy1: X  XXX_.XXX  X_0
!!!rhy2: XXXXX  X_XXX_0
!!!key: T0307  08  G 4/4 ]  ZZ[5
!!!mod: PENTATONIK DUR ?]  AMBITUS[8
!!!kad: 12551
!!!akz: 111_352_3535_3155_331_
!!!fot: 'a__b__bw_c__d__
!!!for: 'a__b__bw_c__d__
!!!fok: '^a_^d_~a_Va_\__
!! PHRAS[AUFTAKTIG]
!!!fkt: historische, Kriegs- und Soldatenlieder
!!!bem: StraPen, fff Witry, 1933
!! THILL, Mathias:
!! PR[30] 2K[0] 2G[15] 3K[11] 3G[6] 4A[4] 4Ü[0] 5A[0] 6K[0] 6G[0]
!! 7K[0] 7G[0] 8A[0] MEHR[0] SI[36] ABS[47] SR[15] SP[21]
!! ST[12] 2k[2] 2g[15] 3k[6] 3g[6] 4d[4] 4ü[0] 5d[0] 6k[0] 6g[0]
!! 7k[0] 7g[0] 8d[0] mehr[0] si[34] dm[+2] sr[17] sp[17]
!! 1F[56] 2F[44] 3F[0] 4F[0] LF[0] 2P[0] 3P[0] 4P[0] TRI[0] DF[2] AB[50]
!! TF[0] U3K[0] U3[0] U4[0] U4Ü[0] U5[4] U6K[0] U6[0] U7K[0] U7[0]
!! N1[8] N2K[0] N2[10] N3K[0] N3[15] N4[8] N4Ü[0] N5[29] N6K[0] N6[21]
!!!n7k: 0] N7[0] O1[4] O2K[0] O2[0] O3K[0] O3[0] HÖ[0
